X:1237
T:Praeludium
T:(Prelude) BWV 934
C:Johann Sebastian Bach
O:Germany
B:From "Sechs kleine Pr\"aludien".
Z:Transcribed by Frank Nordberg - http://www.musicaviva.com
F:http://abc.musicaviva.com/tunes/bach-johann-sebastian/bwv0934/bwv0934.abc
V:1 Program 1 6 %Harpsichord
V:2 Program 1 6 bass %Harpsichord
M:3/4
L:1/8
K:Cm
V:1
cdeGdF|{F}EDCEGc|Fedfac|{c}=B=AGBdf|ecGc=ec|
V:2
C,2C2G,2|A,2A,,2z2|A,2F,2D,2|G,2G,,2z2|C,2C2_B,2|
%
V:1
fcgc_ac|dBFBdB|eBfBgB|cAGAce|BGFGBe|
V:2
_A,2G,2F,2|B,,2B,2A,2|G,2F,2E,2|A,2C2F,2|G,2B,2E,2|
%
V:1
AGFGAE|DEFDB,A,|G,B,EB,G,B,|A,EB,ECE|B,ECE_DE|
V:2
F,2A,2F,2|B,2B,,2D,2|E,2E,,2_D,2|C,2B,,2A,,2|G,,2F,,2E,,2|
%
V:1
C2E2A2-|A2F2=d2-|d2B2g2-|gfedcd|e-[B-e-][G4B4e4]:|
V:2
A,,E,A,G,F,E,|=D,F,B,A,G,F,|G,B,E_DCB,|A,2B,2B,,2|E,3B,E2:|
%
V:1
|:gabgbf|=e=dcegb|af_dg=ec|BGAcf=A|B=df_agf|
V:2
|:E,2E2_D2|C2=E,2C,2|F,2B,,2C,2|F,,2F,2_E,2|=D,2B,,2D,2|
%
V:1
gedc=Bf|edce=AG|^FG=AFDA|dG^FcBG|C^FG=AEC|
V:2
E,2E2D2|C2=A,2C2|D2D,2C,2|B,,2=A,,2G,,2|E,2D,2C,2|
%
V:1
B,D^FG=A,F|G2PB4-|B_d=ecgB|_ABcAF=E|FA=BGdF|
V:2
D,2C,2D,2|G,,D,E,B,_D=F,|=E,2C,2E,2|F,G,_A,2z2|=B,,2G,,2B,,2|
%
V:1
_EFGEC=B,|CE^FD=AC|=B,D=F_AG=B|dfecG=B|c-[G-c-][E4G4c4]:|]
V:2
C,D,_E,2z2|^F,,2D,,2F,,2|G,,2D,2E,2|_A,,2F,,2G,,2|C,3G,C2:|]
W:
W:
W:  From Musica Viva - http://www.musicaviva.com
W:  the Internet center for free sheet music downloads.
